brandFactory_export/3.Masa/Rewind_Masa.svg

<?xml version="1.0" encoding="UTF-8"?>
<svg width="24px" height="24px" viewBox="0 0 24 24" version="1.1" xmlns="http://www.w3.org/2000/svg" xmlns:xlink="http://www.w3.org/1999/xlink">
    <title>3.Masa/Rewind_Masa</title>
    <g id="Symbols" stroke="none" stroke-width="1" fill="none" fill-rule="evenodd">
        <g id="3.Masa/Rewind_Masa" fill="#5CB615" fill-rule="nonzero">
            <path d="M20.5042017,2.92436975 C18.497479,0.991596639 15.5764706,0.0100840336 11.8184874,0.0100840336 C8.0605042,0.0100840336 5.14285714,0.991596639 3.1394958,2.92436975 C1.05546218,4.93445378 0,7.92941176 0,11.8352941 C0,15.7411765 1.05546218,18.7361345 3.13613445,20.7428571 C5.14285714,22.6756303 8.06386555,23.6571429 11.8184874,23.6571429 C15.5731092,23.6571429 18.497479,22.6756303 20.5042017,20.7428571 C22.5882353,18.7361345 23.6436975,15.7378151 23.6436975,11.8352941 C23.6436975,7.93277311 22.5882353,4.93445378 20.5042017,2.92436975 Z M18.5411765,15.0487395 C18.5411765,15.4184874 18.2420168,15.7210084 17.8689076,15.7210084 C17.7478992,15.7210084 17.6302521,15.687395 17.5260504,15.6268908 L11.5394958,12.0638655 C11.4285714,11.9966387 11.3378151,11.8991597 11.2806723,11.7815126 L11.2806723,15.0420168 C11.2806723,15.4117647 10.9815126,15.7142857 10.6084034,15.7142857 C10.487395,15.7142857 10.3697479,15.6806723 10.2655462,15.6201681 L4.2789916,12.0571429 C3.95966387,11.8689076 3.85546218,11.4554622 4.04369748,11.1361345 C4.10084034,11.0420168 4.18151261,10.9613445 4.27563025,10.9042017 L10.2621849,7.30756303 C10.5815126,7.11596639 10.994958,7.22016807 11.1831933,7.53613445 C11.2470588,7.64033613 11.2806723,7.76134454 11.2806723,7.88235294 L11.2806723,11.189916 C11.3378151,11.0722689 11.4285714,10.9781513 11.5361345,10.9109244 L17.5226891,7.31428571 C17.8420168,7.12268908 18.2554622,7.22689076 18.4436975,7.54285714 C18.507563,7.64705882 18.5411765,7.76806723 18.5411765,7.88907563 L18.5411765,15.0487395 L18.5411765,15.0487395 Z" id="Rewind_Masa"></path>
        </g>
    </g>
</svg>

<svg width="24" height="24" viewBox="0 0 24 24" xmlns="http://www.w3.org/2000/svg"><path d="M20.504 2.924C18.497.992 15.576.01 11.818.01 8.061.01 5.143.992 3.14 2.924 1.055 4.934 0 7.93 0 11.835c0 3.906 1.055 6.901 3.136 8.908 2.007 1.933 4.928 2.914 8.682 2.914 3.755 0 6.68-.981 8.686-2.914 2.084-2.007 3.14-5.005 3.14-8.908 0-3.902-1.056-6.9-3.14-8.91zM18.541 15.05a.672.672 0 01-1.015.578l-5.987-3.563a.677.677 0 01-.258-.282v3.26a.672.672 0 01-1.015.578l-5.987-3.563a.673.673 0 01-.003-1.153l5.986-3.596a.67.67 0 011.019.574v3.308a.683.683 0 01.255-.28l5.987-3.596a.67.67 0 011.018.575v7.16z" fill="#5CB615" fill-rule="nonzero"/></svg>
